X:1
T:The Strenuous Life
T:THE STRENUOUS LIFE,
T: A  RAGTIME  TWO  STEP.
T:BY  SCOTT  JOPLIN.
T:Public Domain
T:Public Domain
T:Public Domain
T:Public Domain
C:Scott Joplin
Z:Public Domain
%%score { ( 1 3 ) | 2 }
L:1/8
Q:1/4=70
M:2/4
K:C
V:1 treble nm="Piano"
V:3 treble 
V:2 bass 
V:1
"^Not fast." gg- gf/e/ | d/c/B/c/ dG | [DFc] [DFc]2 [DFc] | [DFB] z [GBfg] z |: GG- G/E/F/G/ | %5
 e/c/A/G/- G/G/c/e/ | [Bd]/[Bd][^A^c]/ [Bd][B^d] | [ce]4 | GG- G/E/F/G/ | e/c/A/G/- G[G^Ae] | %10
 [GBd]/[GBd][GBd]/ [G^ce][^F=c^f] | [GBg]4 | GG- G/E/F/G/ | e/c/A/G/- G/G/c/e/ | %14
 [Bd]/[Bd][^A^c]/ [Bd][B^d] | [ce]3 [ce] | f/e/f/c'/- c'/c'b/ | [cec']/g/e/c/ [G^cf]/[Gce][GA]/ | %18
 [^F=c]/[Fc][Fe]/ (d/c/)[=Fd] |1 [Ec]3 z :|2 [Ec]3 B/d/ |:[K:G] [Fc]/[Fc][FB]/ c/(c/B/A/) | %22
 G/A/B/d/- d/ed/ | [Fc]/[Fc][FB]/ c/(c/B/A/) | GD- D/GB/ | A/A^G/ A/A/B/A/ | G/A/B/d/- d/de/ | %27
 f/d/A/e/- e/a/g/^c/ | d[^cga] [dfd'] B/d/ | [F=c]/[Fc][FB]/ c/(c/B/A/) | G/A/B/d/- d/ed/ | %31
 [Fc]/[Fc][FB]/ c/(c/B/A/) | GD- DD | E/G/c/e/- e/g/f/e/ | d/e/d/B/ G(G/A/) | %35
 B/d/e/d/ [CA]/[CA][CD]/ |1 [B,G](D/E/ F/G/A/B/) :|2 [B,G] z [GBg] z ||[K:C] GG- G/E/F/G/ | %39
 e/c/A/G/- G/G/c/e/ | [Bd]/[Bd][^A^c]/ [Bd][B^d] | [ce]4 | GG- G/E/F/G/ | e/c/A/G/- G[G^Ae] | %44
 [GBd]/[GBd][GBd]/ [G^ce][^F=c^f] | [GBg]4 | GG- G/E/F/G/ | e/c/A/G/- G/G/c/e/ | %48
 [Bd]/[Bd][^A^c]/ [Bd][B^d] | [ce]3 [ce] | f/e/f/c'/- c'/c'b/ | [cec']/g/e/c/ [G^cf]/[Gce][GA]/ | %52
 [^F=c]/[Fc][Fe]/ (d/c/)[=Fd] | [Ec] z [cec'] z ||[K:F] F F2 A | c/A/F/A/ cC | %56
 [GB][GB]/[GB]/- [GB]/[GB]/[GB] | [GB][FBf] [EBe][EB] ||[K:F]!p! [FA]/^G/A/d/- d/c/F/=G/ | %59
 [CA][=B,DF^G] [CFA]/C/F/=G/ | A/^G/A/d/- d/c/=G/A/ | [CEB][C^DA] [CEB]/C/E/G/ | %62
 B/A/B/e/- e/d/G/A/ | [CEB][C^DA] [CEB]/C/E/G/ | B/A/B/e/- e/d/c/B/ | A2- A/C/F/G/ | %66
 A/^G/A/d/- d/c/F/=G/ | [CA][=B,DF^G] [CFA]/f/e/d/ | ^c/A/c/e/ [Aa][Acg] | [Adf]3 _e | %70
 d/=e/f/d/- d/e/f/g/ | [ca][=B^g] [ca]/f/e/d/ | c/c'/b/e/ [ca][Bg] |1 [Af]c/c/ cc :|2 %74
 [Af]2- [Af]/[fd'f'][ec'e']/ |: [dbd']/[^cb^c']/[dbd']/[ebe']/- [ebe']/[dbd'][^cb^c']/ | %76
 [dbd']2- [dbd']/[ebe'][dbd']/ | [cac']/[=B=b]/[cc']/[dd']/- [dd']/[cc'][=B=b]/ | %78
 [cac']2- [cac']/[dd'][cc']/ | [Beb]/[Aa]/[Bb]/[cec']/- [cec']/[Bb][Aa]/ | %80
 [Beb]2- [Beb]/[Aa][Gg]/ | [Ff]/[Gg]/[Aa]/[cc']/- [cc']/[e^ge'][dgd']/ | %82
 [cac']2- [cac']/[fd'f'][ec'e']/ | [dbd']/[^cb^c']/[dbd']/[ebe']/- [ebe']/[dbd'][^cb^c']/ | %84
 [dbd']2- [dbd']/[ebe'][dbd']/ | [cac']/[=B=b]/[cc']/[dd']/- [dd']/[cc'][=B=b]/ | %86
 [cac']2- [cac']/[cc']/[Aa]/[Gg]/ | [^F^f]/[Aa]/[cc']/[_e_e']/- [ee']/[dd'][cc']/ | %88
 [Bb]/[Aa]/[Bb]/[dd']/- [dd']/[ff']/[ee']/[dd']/ | [cc']/[Aa][cc']/ [Bdb]/[Aca]/[GBg] |1 %90
 [FAf]2- [FAf]/[ff'][ee']/ :|2 [FAf] z [fac'f'] z |] %92
V:2
[I:staff -1] GG- GF/E/ | D/C/B,/C/ D[I:staff +1]G, | [_A,,_A,] [A,,A,]2 [A,,A,] | %3
 [G,,G,] z [G,,,G,,] z |:!f! [C,,C,][G,CE] G,,[G,CE] | C,[G,CE] E,[G,CE] | G,[B,DF] G,,[G,B,F] | %7
 C,[G,,G,]/[A,,A,]/- [A,,A,]/[G,,G,]/[A,,A,]/[B,,B,]/ | [C,C][G,CE] G,,[G,CE] | %9
 C,[G,CE] [G,CE][^C,^C] | [D,D]2 [A,,A,][D,,D,] | %11
 [G,,,G,,][A,,A,]/[G,,G,]/- [G,,G,]/[F,,F,]/[E,,E,]/[D,,D,]/ | [C,,C,][G,CE] G,,[G,CE] | %13
 C,[G,CE] E,[G,CE] | G,[B,DF] G,,[G,B,F] | [C,,C,][G,,G,] [C,C][_B,,_B,] | %16
 [A,,A,][A,CF] [_A,,_A,][A,CF] | [G,,G,][G,CE] [=A,,=A,][A,^C] | [D,A,=C][D,A,C] [G,B,][G,B,] |1 %19
 [C,C][B,,B,]/[A,,A,]/ [G,,G,]/[F,,F,]/[E,,E,]/[D,,D,]/ :|2 [C,C][G,,G,] [C,,C,] z |: %21
[K:G] A,,[F,CD] D,,[F,CD] | G,,[G,B,D] B,,[G,B,D] | A,,[F,CD] D,,[F,CD] | G,,[G,B,] D,[G,B,] | %25
 C,[D,F,A,] C,[D,F,A,] | B,,[D,G,] _B,,[D,G,] | A,,[F,A,D] A,,[E,G,A,^C] | %28
 [D,F,A,D][A,,A,] [D,,D,] z | A,,[F,CD] D,,[F,CD] | G,,[G,B,D] B,,[G,B,D] | A,,[F,CD] D,,[F,CD] | %32
 G,,[G,B,] B,,[=F,G,B,] | [C,E,G,C][C,E,G,C] [^C,E,G,^A,][C,E,G,A,] | %34
 [D,G,B,][D,G,B,] [_E,G,_B,]2 | D,[G,=B,] D,[F,A,] |1 [G,,G,] z z2 :|2 [G,,G,] z [G,,,G,,] z || %38
[K:C] C,[G,CE] G,,[G,CE] | C,[G,CE] E,[G,CE] | G,[B,DF] G,,[G,B,F] | %41
 C,[G,,G,]/[A,,A,]/- [A,,A,]/[G,,G,]/[A,,A,]/[B,,B,]/ | [C,C][G,CE] G,,[G,CE] | %43
 C,[G,CE] [G,CE][^C,^C] | [D,D]2 [A,,A,][D,,D,] | %45
 [G,,,G,,][A,,A,]/[G,,G,]/- [G,,G,]/[F,,F,]/[E,,E,]/[D,,D,]/ | [C,,C,][G,CE] G,,[G,CE] | %47
 C,[G,CE] E,[G,CE] | G,[B,DF] G,,[G,B,F] | [C,,C,][G,,G,] [C,C][_B,,_B,] | %50
 [A,,A,][A,CF] [_A,,_A,][A,CF] | [G,,G,][G,CE] [=A,,=A,][A,^C] | [D,A,=C][D,A,C] [G,B,][G,B,] | %53
 [C,C] z [C,,C,] z ||[K:F] F, F,2 A, | C/A,/F,/A,/ CC, | (E_E D_D | C)[_D,,_D,] [C,,C,]C,, || %58
[K:F] F,,[A,CF] [A,CF]C,, | F,,F, F,C,, | F,,[A,CF] [A,CF]C,, | G,,^F,, G,,C,, | %62
 G,,[G,B,CE] [G,B,CE]C,, | G,,^F,, G,,C,, | G,,[G,B,CE] [G,B,CE]E,, | F,,[A,CF] [A,CF]C,, | %66
 F,,[A,CF] [A,CF]C,, | F,,F, F,C,, | E,,[A,^CG] [A,CG]A,,, | D,,[A,DF] [A,DF]C, | %70
 B,,[B,DF] [B,DF]=B,, | C,[DF] [CF] z | C,[B,CE] C,[CE] |1 [F,CF] z z C,, :|2 %74
 [F,F][C,C] [F,,F,] z |: B,,[G,B,D] G,,[G,B,D] | B,,[G,B,D] G,,^G,, | A,,[A,CF] C,,[A,CF] | %78
 F,,[A,CF] C,,^F,, | G,,[G,B,CE] C,,[G,B,CE] | G,,[G,B,CE] C,,E,, | F,,[A,CF] F,,[^G,=B,F] | %82
 F,,[A,CF] [A,CF] z | B,,[G,B,D] G,,[G,B,D] | B,,[G,B,D] G,,^G,, | A,,[A,CF] C,,[A,CF] | %86
 F,,[A,CF] C,,[A,CF] | D,,[^F,CD] ^F,,[F,CD] | G,,[G,B,D] =B,,[^G,=B,F] | C,[A,CF] C,[B,CE] |1 %90
 [F,A,C]E, D,C, :|2 [F,A,C] z [F,,,F,,] z |] %92
V:3
 x4 | x4 | x4 | x4 |: E2 x2 | x4 | x4 | x4 | E2 x2 | x4 | x4 | x4 | E2 x2 | x4 | x4 | x4 | %16
 c>[cf]- [cf]<[cf] | x4 | x2 =F2 |1 x4 :|2 x4 |:[K:G] x2 F2 | x4 | x2 F2 | x4 | x4 | x4 | x4 | x4 | %29
 x2 F2 | x4 | x2 F2 | x4 | x4 | x4 | x4 |1 x4 :|2 x4 ||[K:C] E2 x2 | x4 | x4 | x4 | E2 x2 | x4 | %44
 x4 | x4 | E2 x2 | x4 | x4 | x4 | c>[cf]- [cf]<[cf] | x4 | x2 =F2 | x4 ||[K:F] x4 | x4 | x4 | x4 || %58
[K:F] x4 | x4 | x4 | x4 | x4 | x4 | x4 | x4 | x4 | x4 | x4 | x4 | x4 | x4 | x4 |1 x4 :|2 x4 |: x4 | %76
 x4 | x4 | x4 | x4 | x4 | x4 | x4 | x4 | x4 | x4 | x4 | x4 | x4 | x4 |1 x4 :|2 x4 |] %92

